X:1
T:Wo Soll Ich Fliehen Hin, 66.77.77
T:Wo Soll Ich Fliehen Hin, 66.77.77
T:Nuremberg, Germany, 1679
T:Public Domain Courtesy of the Cyber Hymnal™
C:Nuremberg, Germany, 1679
Z:Public Domain
Z:Courtesy of the Cyber Hymnal™
%%score 1 ( 2 3 )
L:1/8
Q:1/4=115
M:4/4
K:D
V:1 treble 
V:2 bass 
V:3 bass 
V:1
 [DF]2 | [DA]2 [DB]2 [DE]2 [CE]2 | [DF]4 z2 [DA]2 | [Dd]2 [Ec]2 [FB]2 [EB]2 | [CA]4 z2 [EA]2 | %5
 [DF]2 [DB]2 [CB]2 [C^A]2 | [DB]2 [DB]2 z2 [DA]2 | [DB]2 [Dd]2 [Ed]2 [Ec]2 | [Fd]2 [Fd]2 z2 [EA]2 | %9
 [DF]2 [DB]2 [CA]2 [DF]2 | [DE]2 [CE]2 z2 [DF]2 | [B,E]2 [A,D]2 [B,D]2 [A,C]2 | [A,D]2 [A,D]2 z2 |] %13
V:2
 [D,A,]2 | [D,F,]2 [G,,G,]2 [A,,E,]2 [A,,A,]2 | [D,A,]4 z2 [D,F,]2 | %3
 [B,,F,]2 [C,A,]2 [D,A,]2 [E,^G,]2 | [A,,A,]4 z2 [C,A,]2 | [D,A,]2 G,2 [E,G,]2 F,2 | %6
 [B,,F,]2 [B,,F,]2 z2 [D,F,]2 | G,2 [F,A,]2 [G,B,]2 A,2 | [D,A,]2 [D,A,]2 z2 [C,A,]2 | %9
 [D,A,]2 [G,,G,]2 [A,,E,]2 (F,G,) | [A,,A,]2 [A,,A,]2 z2 [D,,A,]2 | %11
 [E,,G,]2 [F,,F,]2 [G,,E,]2 [A,,E,]2 | [D,F,]2 [D,F,]2 z2 |] %13
V:3
 x2 | x8 | x8 | x8 | x8 | x2 G,2 F,2 x2 | x8 | G,2 x2 A,2 x2 | x8 | x6 D,2 | x8 | x8 | x6 |] %13

